!!!!SEGMENT: pl-wn--sd-xvi-qu-273--016_gomolka-mikolaj--o-ktory-siedzisz-na-wysokim-niebie.krn
!!!cenid: 15xx:221
!!!COM: Gomółka, Mikołaj
!!!COM-rismid: pe30013343
!!!CDT: ~1535->1591/04/30
!!!CNT: Polish
!!!GTL: Melodiae na psalterz polski
!!!OTL: XVI. O, który siedzisz na wysokim niebie,
!!!PDT: 1580
!!!AGN: Sacred
!!!SMS-siglum: PL-Wn
!!!SMS-shelfmark: SD XVI.Qu.273
!!!SMS-shelfwork: 016 G
!!!NIFC-rismid:
!!!ONB-nifc: Melodiae na psalterz polski
**kern	**text	**kern	**text	**kern	**text	**kern	**text
*part4	*part4	*part3	*part3	*part2	*part2	*part1	*part1
*staff4	*staff4	*staff3	*staff3	*staff2	*staff2	*staff1	*staff1
*clefF3	*	*clefC3	*	*clefC1	*	*clefG2	*
*k[b-]	*	*k[b-]	*	*k[b-]	*	*k[b-]	*
*c:	*	*c:	*	*c:	*	*c:	*
*M4/2	*	*M4/2	*	*M4/2	*	*M4/2	*
*met(C|)	*	*met(C|)	*	*met(C|)	*	*met(C|)	*
*xywh-18r:540,5194,5050,1390	*	*xywh-18r:589,3939,5002,1352	*	*xywh-18r:598,2654,5060,1381	*	*xywh-18r:550,1186,5070,1603	*
=1-	=1-	=1-	=1-	=1-	=1-	=1-	=1-
1G\	O	1B-/	O	1d/	O	1g/	O
2E-/X	Któ-	2e-\X	któ-	4g/	Któ-	2b-/	któ-
.	.	.	.	4f/	.	.	.
2C/	-ry	2e-\	-ry	4g/	-ry	2cc\	-ry
.	.	.	.	4a\	.	.	.
=2-	=2-	=2-	=2-	=2-	=2-	=2-	=2-
4G\	śie-	2d\	śie-	1b-\	śie-	2.dd\	śie-
4F/	.	.	.	.	.	.	.
4G\	.	1g\	-dźisz	.	.	.	.
4A\	.	.	.	.	.	4cc\	.
4B-\	-dźisz	.	.	2b-\	-dźisz	4dd\	-dźisz
4c\	.	.	.	.	.	4ee\	.
2d\	ná	1f\	ná	2a\	ná	2ff\	ná
=3-	=3-	=3-	=3-	=3-	=3-	=3-	=3-
2B-\	wy-	.	.	2b-\	wy-	2dd\	wy-
1c\	-so-	1e\	wy-	2g/	.	1gg\	-so-
.	.	.	.	4cc\	-so-	.	.
.	.	.	.	4b-\	.	.	.
2d\	-kim	1d\	-so-	4a\	.	2ff\	-kim
.	.	.	.	4g\	.	.	.
=4-	=4-	=4-	=4-	=4-	=4-	=4-	=4-
1A\	nie-	.	.	1a\	-kim	1ee\	nie-
.	.	4c/	-kim	.	.	.	.
.	.	4B/	.	.	.	.	.
1AA/	.	4c#/	nie-	4a\	nie-	1ee\	.
.	.	2d\	.	4g\	.	.	.
.	.	.	.	8a\L	.	.	.
.	.	.	.	8g\	.	.	.
.	.	4c#\X	.	8f/	.	.	.
.	.	.	.	8e/J	.	.	.
=5-	=5-	=5-	=5-	=5-	=5-	=5-	=5-
2D/	-bie:	2d\	-bie,	2f#/X	-b(ie,)	2dd\	-b(ie,)
2d\	Ja	2f\	Ja	2a\	Ja	2dd\	Ja
2B-\	nié	2f\	nié	2b-\	nié	2ff\	nié
2B-\	mam	2d\	mam	2dd\	mam	2ff\	mam
=6-	=6-	=6-	=6-	=6-	=6-	=6-	=6-
1c\	in-	1g\	in-	2.cc\	in-	1ee-\X	in-
.	.	.	.	4b-\	.	.	.
2d\	-szeéj	2.f\	-széj	4a\	-széj.	2.dd\	-széj
.	.	.	.	4g\	.	.	.
2D/	.	.	.	2a\	.	.	.
.	.	4e-\X	.	.	.	4cc\	.
!!LO:PB:g=original
=7-	=7-	=7-	=7-	=7-	=7-	=7-	=7-
*xywh-18v:1142,5363,5130,1377	*	*xywh-18v:1142,3985,5120,1309	*	*xywh-18v:1132,2735,5091,1309	*	*xywh-18v:1162,1171,5091,1612	*
2G\	ná-	4d\	ná-	2g\	ná-	2b-\	ná-
.	.	4c\	.	.	.	.	.
2G\	-dźie-	2B-/	-dźie-	4b-\	-dźie-	4ee\	-dźie-
.	.	.	.	4a\	.	4dd\	.
!LO:SIC:v=podłożenie tekstu wymuszone łamaniem stron	!	!	!	!	!	!	!
1E-/X	-ie krom	2.e-\X	-ie	4g/	-ie	4cc\	-ie
.	.	.	.	4f/	.	4b-\	.
.	.	.	.	2g/	króm	1b-\	króm
.	.	4d\	.	.	.	.	.
=8-	=8-	=8-	=8-	=8-	=8-	=8-	=8-
1F\	ćie-	4c/	krom	2.f/	ćie-	.	.
.	.	4B-/	.	.	.	.	.
.	.	2c/	ćie-	.	.	2a/	ćie-
.	.	.	.	4e-/X	.	.	.
2BB-/	(-bie)	2B-/	-bie:	2d/	-bie;	2b-/	-bie.
2BB-/	Ty	2d\	Ty	2f/	Ty	2b-/	Ty
=9-	=9-	=9-	=9-	=9-	=9-	=9-	=9-
2E/	mię	2e-\X	mię	2.g/	mię	2b-/	mię
2C/	ch(ćiey)	2e-\	chćiey	.	.	2cc/	chćiey
.	.	.	.	8f/L	chćiey	.	.
.	.	.	.	8e-/XJ	.	.	.
1D/	wspo-	2.d\	wspo-	4f/	.	1a/	wspo-
.	.	.	.	2g/	wspo-	.	.
.	.	4c\	.	4f/	.	.	.
=10-	=10-	=10-	=10-	=10-	=10-	=10-	=10-
2G\	(-móc)	2B-/	(-móc)	2g/	-móc	2b-/	(-móc)
2D/	w mo-	2d\	w mo-	2f/	w mo-	4a/	w mo-
.	.	.	.	.	.	4b-/	.
2E/	-iéy	4c\	(-iéy)	2e-/X	-iéy	4a/	(-iéy)
.	.	4B-/	.	.	.	4g/	.
2E/	do-	4A/	do-	2c/	do-	2g/	do-
.	.	4G/	.	.	.	.	.
=11-	=11-	=11-	=11-	=11-	=11-	=11-	=11-
2D/	-leg-	2A/	-leg-	2d/	-leg-	2g/	-leg-
2D/	(-łoś-	2A/	-ł(oś-	1d/	-łoś-	2f#/X	-(łoś-
2GG/	-ci,)	2G/	-ci,)	.	-ci,	2g/	-ci,)
2G\	Bo-	2G/	Bo-	2g/	-ci,	2b-/	Bo-
=12-	=12-	=12-	=12-	=12-	=12-	=12-	=12-
2E-/X	-że	2.c/	-że	2g/	Bo-	2cc\	-że
2C/	li-	.	.	4f#/X	-że	2ee-\X	li-
.	.	4B-/	.	4e/	.	.	.
1D/	-toś-	4A/	li-	4f#/X	li-	2.dd\	-toś-
.	.	4G/	.	2g/	-toś-	.	.
.	.	2A/	-toś-	.	.	.	.
.	.	.	.	4f#/X	.	4cc\	.
=13-	=13-	=13-	=13-	=13-	=13-	=13-	=13-
000G\	-ći.	000G/	-ći!	000g\	-ći!	000bn\X	-ći!
==-	==-	==-	==-	==-	==-	==-	==-
*-	*-	*-	*-	*-	*-	*-	*-
!!!RDF**kern: l = terminal long
!!!system-decoration: s1,s2,s3,s4
!!!ENC: Leszek Kubiak
!!!END: data 2020-02-04
!!!URL-scan: https://polona.pl/item/melodiae-na-psalterz-polski,Nzk3MTM4ODQ/52 Scan on Polona
!!!IIIF: https://polona.pl/iiif/item/Nzk3MTM4ODQ/manifest.json
